X:19281
T:Zádnyj nevi
A:Chodenland, Böhmen
Z:abc transcription Simon Wascher
N:please mail errors to simon.wascher@chello.at
M:3/4
L:1/4
K:G
d2d/c/|B2c|dde|dcB|
c2c/B/|A2G|FGA|D3:|
|:AAB|ccA|BBc|ddB|
d2d/c/|B2d|cBA|G3:|


